X:1
L:1/8
M:2/4
K:F
 F | Ac dG | F3 c | cAfd | c3 c | c>A fd | c>B !fermata!A G | Ac (3:2:2d2 G | F3 ||
